static/images/brands/browser.svg

<svg width="95" height="19" viewBox="0 0 95 19" fill="none" xmlns="http://www.w3.org/2000/svg">
<path d="M0.517045 18V0.545454H7.50568C8.78977 0.545454 9.8608 0.735795 10.7188 1.11648C11.5767 1.49716 12.2216 2.02557 12.6534 2.7017C13.0852 3.37216 13.3011 4.14489 13.3011 5.01989C13.3011 5.7017 13.1648 6.30114 12.892 6.81818C12.6193 7.32955 12.2443 7.75 11.767 8.07955C11.2955 8.40341 10.7557 8.63352 10.1477 8.76989V8.94034C10.8125 8.96875 11.4347 9.15625 12.0142 9.50284C12.5994 9.84943 13.0739 10.3352 13.4375 10.9602C13.8011 11.5795 13.983 12.3182 13.983 13.1761C13.983 14.1023 13.7528 14.929 13.2926 15.6562C12.8381 16.3778 12.1648 16.9489 11.2727 17.3693C10.3807 17.7898 9.28125 18 7.97443 18H0.517045ZM4.20739 14.983H7.21591C8.24432 14.983 8.99432 14.7869 9.46591 14.3949C9.9375 13.9972 10.1733 13.4687 10.1733 12.8097C10.1733 12.3267 10.0568 11.9006 9.82386 11.5312C9.59091 11.1619 9.25852 10.8722 8.8267 10.6619C8.40057 10.4517 7.89205 10.3466 7.30114 10.3466H4.20739V14.983ZM4.20739 7.84943H6.94318C7.44886 7.84943 7.89773 7.76136 8.28977 7.58523C8.6875 7.40341 9 7.14773 9.22727 6.81818C9.46023 6.48864 9.5767 6.09375 9.5767 5.63352C9.5767 5.00284 9.35227 4.49432 8.90341 4.10795C8.46023 3.72159 7.82955 3.52841 7.01136 3.52841H4.20739V7.84943ZM16.0761 18V4.90909H19.5959V7.19318H19.7323C19.9709 6.38068 20.3715 5.76705 20.934 5.35227C21.4965 4.93182 22.1442 4.72159 22.8772 4.72159C23.059 4.72159 23.255 4.73295 23.4653 4.75568C23.6755 4.77841 23.8601 4.80966 24.0192 4.84943V8.07102C23.8488 8.01989 23.613 7.97443 23.3118 7.93466C23.0107 7.89489 22.7351 7.875 22.4851 7.875C21.9511 7.875 21.4738 7.99148 21.0533 8.22443C20.6386 8.4517 20.309 8.76989 20.0647 9.17898C19.8261 9.58807 19.7067 10.0597 19.7067 10.5938V18H16.0761ZM30.9618 18.2557C29.6379 18.2557 28.493 17.9744 27.5271 17.4119C26.5669 16.8437 25.8254 16.054 25.3027 15.0426C24.7799 14.0256 24.5186 12.8466 24.5186 11.5057C24.5186 10.1534 24.7799 8.97159 25.3027 7.96023C25.8254 6.94318 26.5669 6.15341 27.5271 5.59091C28.493 5.02273 29.6379 4.73864 30.9618 4.73864C32.2856 4.73864 33.4277 5.02273 34.3879 5.59091C35.3538 6.15341 36.0981 6.94318 36.6209 7.96023C37.1436 8.97159 37.4049 10.1534 37.4049 11.5057C37.4049 12.8466 37.1436 14.0256 36.6209 15.0426C36.0981 16.054 35.3538 16.8437 34.3879 17.4119C33.4277 17.9744 32.2856 18.2557 30.9618 18.2557ZM30.9788 15.4432C31.5811 15.4432 32.0839 15.2727 32.4873 14.9318C32.8907 14.5852 33.1947 14.1136 33.3993 13.517C33.6095 12.9205 33.7146 12.2415 33.7146 11.4801C33.7146 10.7188 33.6095 10.0398 33.3993 9.44318C33.1947 8.84659 32.8907 8.375 32.4873 8.02841C32.0839 7.68182 31.5811 7.50852 30.9788 7.50852C30.3709 7.50852 29.8595 7.68182 29.4447 8.02841C29.0356 8.375 28.726 8.84659 28.5157 9.44318C28.3112 10.0398 28.2089 10.7188 28.2089 11.4801C28.2089 12.2415 28.3112 12.9205 28.5157 13.517C28.726 14.1136 29.0356 14.5852 29.4447 14.9318C29.8595 15.2727 30.3709 15.4432 30.9788 15.4432ZM41.78 18L38.2175 4.90909H41.8908L43.9192 13.7045H44.0385L46.1522 4.90909H49.7573L51.905 13.6534H52.0158L54.0101 4.90909H57.6749L54.1209 18H50.2772L48.0272 9.76705H47.8652L45.6152 18H41.78ZM70.2637 8.64205L66.9399 8.84659C66.883 8.5625 66.7609 8.30682 66.5734 8.07955C66.3859 7.84659 66.1387 7.66193 65.8319 7.52557C65.5308 7.38352 65.17 7.3125 64.7495 7.3125C64.187 7.3125 63.7126 7.43182 63.3262 7.67045C62.9399 7.90341 62.7467 8.21591 62.7467 8.60795C62.7467 8.92045 62.8717 9.18466 63.1217 9.40057C63.3717 9.61648 63.8007 9.78977 64.4086 9.92045L66.7779 10.3977C68.0507 10.6591 68.9995 11.0795 69.6245 11.6591C70.2495 12.2386 70.562 13 70.562 13.9432C70.562 14.8011 70.3092 15.554 69.8035 16.2017C69.3035 16.8494 68.616 17.3551 67.741 17.7188C66.8717 18.0767 65.8688 18.2557 64.7325 18.2557C62.9995 18.2557 61.6188 17.8949 60.5904 17.1733C59.5677 16.446 58.9683 15.4574 58.7921 14.2074L62.3632 14.0199C62.4711 14.5483 62.7325 14.9517 63.1472 15.2301C63.562 15.5028 64.0933 15.6392 64.741 15.6392C65.3774 15.6392 65.8887 15.517 66.2751 15.2727C66.6671 15.0227 66.866 14.7017 66.8717 14.3097C66.866 13.9801 66.7268 13.7102 66.4541 13.5C66.1813 13.2841 65.7609 13.1193 65.1927 13.0057L62.9257 12.554C61.6472 12.2983 60.6955 11.8551 60.0705 11.2244C59.4512 10.5937 59.1416 9.78977 59.1416 8.8125C59.1416 7.97159 59.3688 7.24716 59.8234 6.6392C60.2836 6.03125 60.9285 5.5625 61.758 5.23295C62.5933 4.90341 63.5705 4.73864 64.6899 4.73864C66.3433 4.73864 67.6444 5.08807 68.5933 5.78693C69.5478 6.4858 70.1046 7.4375 70.2637 8.64205ZM78.5742 18.2557C77.2276 18.2557 76.0685 17.983 75.0969 17.4375C74.131 16.8864 73.3867 16.108 72.8639 15.1023C72.3412 14.0909 72.0798 12.8949 72.0798 11.5142C72.0798 10.1676 72.3412 8.9858 72.8639 7.96875C73.3867 6.9517 74.1224 6.15909 75.0713 5.59091C76.0259 5.02273 77.1452 4.73864 78.4293 4.73864C79.2929 4.73864 80.0969 4.87784 80.8412 5.15625C81.5912 5.42898 82.2446 5.84091 82.8014 6.39205C83.3639 6.94318 83.8014 7.63636 84.1139 8.47159C84.4264 9.30114 84.5827 10.2727 84.5827 11.3864V12.3835H73.5287V10.1335H81.1651C81.1651 9.6108 81.0514 9.14773 80.8242 8.74432C80.5969 8.34091 80.2815 8.02557 79.8781 7.7983C79.4804 7.56534 79.0173 7.44886 78.4889 7.44886C77.9378 7.44886 77.4492 7.5767 77.023 7.83239C76.6026 8.08239 76.273 8.42045 76.0344 8.84659C75.7957 9.26705 75.6736 9.7358 75.6679 10.2528V12.392C75.6679 13.0398 75.7872 13.5994 76.0259 14.071C76.2702 14.5426 76.6139 14.9062 77.0571 15.1619C77.5003 15.4176 78.0259 15.5455 78.6338 15.5455C79.0372 15.5455 79.4065 15.4886 79.7418 15.375C80.077 15.2614 80.3639 15.0909 80.6026 14.8636C80.8412 14.6364 81.023 14.358 81.148 14.0284L84.506 14.25C84.3355 15.0568 83.9861 15.7614 83.4577 16.3636C82.9349 16.9602 82.2588 17.4261 81.4293 17.7614C80.6054 18.0909 79.6537 18.2557 78.5742 18.2557ZM86.712 18V4.90909H90.2319V7.19318H90.3682C90.6069 6.38068 91.0074 5.76705 91.5699 5.35227C92.1324 4.93182 92.7802 4.72159 93.5131 4.72159C93.6949 4.72159 93.891 4.73295 94.1012 4.75568C94.3114 4.77841 94.4961 4.80966 94.6552 4.84943V8.07102C94.4847 8.01989 94.2489 7.97443 93.9478 7.93466C93.6466 7.89489 93.3711 7.875 93.1211 7.875C92.587 7.875 92.1097 7.99148 91.6893 8.22443C91.2745 8.4517 90.9449 8.76989 90.7006 9.17898C90.462 9.58807 90.3427 10.0597 90.3427 10.5938V18H86.712Z" fill="white"/>
</svg>

<svg width="95" height="19" fill="none" xmlns="http://www.w3.org/2000/svg"><path d="M.517 18V.545h6.989c1.284 0 2.355.19 3.213.571.858.381 1.503.91 1.934 1.586.432.67.648 1.443.648 2.318 0 .682-.136 1.281-.409 1.798a3.53 3.53 0 01-1.125 1.262 4.61 4.61 0 01-1.62.69v.17a3.909 3.909 0 011.867.563c.585.346 1.06.832 1.424 1.457.363.62.545 1.358.545 2.216 0 .926-.23 1.753-.69 2.48-.455.722-1.128 1.293-2.02 1.713-.892.42-1.992.631-3.299.631H.517zm3.69-3.017h3.009c1.028 0 1.778-.196 2.25-.588.472-.398.707-.926.707-1.585 0-.483-.116-.91-.35-1.279a2.374 2.374 0 00-.996-.87c-.426-.21-.935-.314-1.526-.314H4.207v4.636zm0-7.134h2.736c.506 0 .955-.088 1.347-.264a2.24 2.24 0 00.937-.767c.233-.33.35-.724.35-1.184 0-.631-.225-1.14-.674-1.526-.443-.386-1.073-.58-1.892-.58H4.207V7.85zM16.077 18V4.91h3.519v2.283h.136c.239-.812.64-1.426 1.202-1.84.563-.421 1.21-.631 1.943-.631.182 0 .378.01.588.034.21.022.395.054.554.093v3.222a4.741 4.741 0 00-.707-.136 6.355 6.355 0 00-.827-.06c-.534 0-1.011.116-1.432.35a2.573 2.573 0 00-.988.954c-.239.41-.358.88-.358 1.415V18h-3.63zm14.885.256c-1.324 0-2.469-.282-3.435-.844a5.774 5.774 0 01-2.224-2.37c-.523-1.016-.784-2.195-.784-3.536 0-1.353.26-2.534.784-3.546a5.705 5.705 0 012.224-2.37c.966-.567 2.11-.851 3.435-.851 1.324 0 2.466.284 3.426.852a5.69 5.69 0 012.233 2.37c.523 1.01.784 2.192.784 3.545 0 1.34-.261 2.52-.784 3.537a5.758 5.758 0 01-2.233 2.369c-.96.562-2.102.844-3.426.844zm.017-2.813c.602 0 1.105-.17 1.508-.511.404-.347.708-.818.912-1.415.21-.596.316-1.275.316-2.037 0-.761-.106-1.44-.316-2.037-.204-.596-.508-1.068-.912-1.415-.403-.346-.906-.52-1.508-.52-.608 0-1.12.174-1.534.52-.41.347-.719.819-.93 1.415-.204.597-.306 1.276-.306 2.037 0 .761.102 1.44.307 2.037.21.597.52 1.068.929 1.415.415.34.926.511 1.534.511zM41.78 18L38.217 4.91h3.674l2.028 8.794h.12l2.113-8.795h3.605l2.148 8.744h.11L54.01 4.91h3.665L54.12 18h-3.844l-2.25-8.233h-.162L45.615 18H41.78zm28.484-9.358l-3.324.205a1.72 1.72 0 00-.367-.767 1.945 1.945 0 00-.741-.554c-.301-.142-.662-.213-1.082-.213-.563 0-1.037.119-1.424.357-.386.233-.58.546-.58.938 0 .312.126.577.376.793.25.215.679.389 1.287.52l2.369.477c1.273.261 2.221.681 2.846 1.261.626.58.938 1.341.938 2.284 0 .858-.253 1.611-.758 2.259-.5.647-1.188 1.153-2.063 1.517-.87.358-1.872.537-3.008.537-1.734 0-3.114-.361-4.143-1.083-1.022-.727-1.622-1.716-1.798-2.966l3.571-.187c.108.528.37.932.784 1.21.415.273.946.41 1.594.41.636 0 1.148-.123 1.534-.367.392-.25.591-.571.597-.963-.006-.33-.145-.6-.418-.81-.273-.216-.693-.38-1.261-.494l-2.267-.452c-1.279-.256-2.23-.699-2.855-1.33-.62-.63-.93-1.434-.93-2.412 0-.84.228-1.565.682-2.173.46-.608 1.105-1.077 1.935-1.406.835-.33 1.813-.494 2.932-.494 1.653 0 2.954.35 3.903 1.048.955.699 1.512 1.65 1.67 2.855zm8.31 9.614c-1.346 0-2.505-.273-3.477-.819a5.604 5.604 0 01-2.233-2.335c-.523-1.011-.784-2.207-.784-3.588 0-1.346.261-2.528.784-3.545A5.796 5.796 0 0175.07 5.59c.955-.568 2.074-.852 3.358-.852.864 0 1.668.139 2.412.417a5.35 5.35 0 011.96 1.236c.563.551 1 1.244 1.313 2.08.312.83.469 1.8.469 2.914v.998H73.529v-2.25h7.636c0-.523-.114-.986-.34-1.39a2.442 2.442 0 00-.947-.946c-.398-.233-.86-.35-1.39-.35-.55 0-1.039.129-1.465.384-.42.25-.75.588-.989 1.015-.238.42-.36.889-.366 1.406v2.139c0 .648.12 1.207.358 1.679a2.62 2.62 0 001.031 1.09c.443.257.969.385 1.577.385.403 0 .772-.057 1.108-.171a2.3 2.3 0 00.86-.511c.24-.228.421-.506.546-.836l3.358.222a4.585 4.585 0 01-1.048 2.114c-.523.596-1.2 1.062-2.029 1.397-.824.33-1.775.495-2.855.495zM86.712 18V4.91h3.52v2.283h.136c.239-.812.64-1.426 1.202-1.84.562-.421 1.21-.631 1.943-.631.182 0 .378.01.588.034.21.022.395.054.554.093v3.222a4.746 4.746 0 00-.707-.136 6.356 6.356 0 00-.827-.06c-.534 0-1.011.116-1.432.35a2.573 2.573 0 00-.988.954c-.239.41-.358.88-.358 1.415V18h-3.631z" fill="#fff"/></svg>
